X: 06090
T: STEPHEN'S JIG
C: Bob McQuillen 6 Nov 82
B: Bob's Note Book 6 #90
%R: jig
Z: 2021 John Chambers <jc:trillian.mit.edu>
M: 6/8
L: 1/8
K: D
FE \
| DFA AFA | Bdd d2e | fef dBA | B2e efe |\
| dff cee | Bcd AFA | BAB cBc | edd d :|
|: fg \
| a2f g2e | fdd def | gag fed | c2A AFA |\
| BGB c2A | dfd B2g | fed Adc | d3- d :|
%%begintext align
%% This tune
%% is for Stephen O'Neal, who is a student
%% at the Dublin School. Stephen goes
%% out of his way to be nice to people, and so
%% I thought he rated a tune for that. Don't you?
%%endtext

%%sep 1 1 500

%%sep 1 1 500

